packages/crs-framework/resources/svg/required.svg

<svg width="24" height="24" viewBox="0 0 24 24" fill="none" xmlns="http://www.w3.org/2000/svg">
<path d="M12.9258 3.48586V9.42694L17.8614 6.45678C18.5433 6.04647 19.4151 6.28996 19.8088 7.00064C20.2024 7.71132 19.9688 8.62006 19.287 9.03036L14.3511 12.0007L19.2868 14.9709C19.9687 15.3812 20.2023 16.29 19.8086 17.0006C19.415 17.7113 18.5431 17.9548 17.8613 17.5445L12.9258 14.5744V20.5141C12.9258 21.3348 12.2876 22 11.5003 22C10.713 22 10.0747 21.3348 10.0747 20.5141V14.5741L5.13871 17.5445C4.45688 17.9548 3.58503 17.7113 3.19138 17.0006C2.79773 16.29 3.03134 15.3812 3.71317 14.9709L8.64891 12.0007L3.71301 9.03036C3.03118 8.62006 2.79757 7.71132 3.19122 7.00064C3.58488 6.28996 4.45673 6.04647 5.13855 6.45678L10.0747 9.42726V3.48586C10.0747 2.66524 10.713 2 11.5003 2C12.2876 2 12.9258 2.66524 12.9258 3.48586Z" fill="#272C37"/>
</svg>

<svg width="24" height="24" xmlns="http://www.w3.org/2000/svg"><path d="M12.926 3.486v5.94l4.935-2.97c.682-.41 1.554-.166 1.948.545.393.71.16 1.62-.522 2.03L14.351 12l4.936 2.97c.682.41.915 1.319.522 2.03-.394.71-1.266.954-1.948.543l-4.935-2.97v5.94c0 .82-.638 1.486-1.426 1.486-.787 0-1.425-.665-1.425-1.486v-5.94l-4.936 2.97c-.682.41-1.554.167-1.948-.543-.393-.711-.16-1.62.522-2.03L8.65 12 3.713 9.03c-.682-.41-.915-1.32-.522-2.03.394-.711 1.266-.955 1.948-.544l4.936 2.97V3.486c0-.82.638-1.486 1.425-1.486.788 0 1.426.665 1.426 1.486Z"/></svg>
